public/illustrations/_drill.svg

<svg width="369" height="308" viewBox="0 0 369 308" fill="none" xmlns="http://www.w3.org/2000/svg">
<path d="M302.123 11.0989C307.844 9.9379 312.134 11.467 314.597 17.3853C316.155 16.8048 317.684 16.4225 319.043 15.8137C332.182 10.9007 345.194 6.08677 358.418 1.28701C359.664 0.777298 360.995 0.380848 362.425 0.0835179C363.544 -0.128861 364.634 0.0551886 365.582 0.734801C366.531 1.41441 367.182 2.16482 367.706 3.21256C368.117 4.34524 368.131 5.44963 367.848 6.63896C367.466 7.71501 366.786 8.66364 365.724 9.38573C364.577 9.99455 363.416 10.6175 362.184 10.9148L320.728 26.2911C319.793 26.7159 318.76 27.0415 318.236 27.3105C318.038 29.9015 318.434 32.5492 317.287 34.4606C316.141 36.372 313.833 37.6038 311.893 39.2603C313.21 46.8918 312.997 47.0759 305.465 50.9129C296.672 55.4578 287.795 59.8894 279.116 64.3352L278.578 64.8025C278.889 66.0342 279.285 67.3652 279.795 68.6111C282.358 75.7329 284.921 82.8688 287.483 89.9906C289.366 95.4558 287.738 98.3442 282.5 101.148C274.231 105.423 266.047 110.025 258.132 114.924C249.269 120.46 240.647 126.732 231.783 132.268C228.824 134.25 227.649 136.36 228.385 139.843C229.022 143.213 229.461 146.752 229.589 150.179C229.815 153.704 229.235 157.386 227.776 160.684C226.403 164.097 224.279 167.042 221.674 169.449C217.143 173.512 212.258 176.953 206.722 179.643C202.744 181.738 203.494 182.404 204.174 185.377C206.906 199.451 209.724 213.623 212.457 227.683C213.901 235.017 212.386 238.925 205.59 242.521C201.186 244.999 196.783 247.264 192.295 249.629C191.459 249.969 190.907 250.62 190.355 251.285C189.803 251.951 189.633 252.843 189.562 253.834C187.467 266.619 183.318 278.753 174.71 288.735C169.613 294.965 163.284 300.203 156.063 303.969C143.008 310.497 130.577 308.826 119.321 300.019C112.213 294.554 106.946 287.319 101.665 280.282C96.8229 273.982 92.3204 267.412 87.0534 261.48C82.7067 256.623 77.2556 253.098 71.0966 250.903C64.7535 248.51 58.8635 249.459 52.8885 252.715C53.2142 253.749 53.3416 254.556 53.6814 255.391C54.9416 258.605 55.1681 262.131 54.5026 265.501C53.8372 268.87 52.1948 271.943 49.8869 274.477C47.1401 277.578 44.1102 280.353 40.8962 282.916C36.3088 286.484 35.2185 286.285 30.5745 282.618C27.6295 284.402 24.5712 286.271 21.4139 288.041C20.5643 288.579 19.6299 289.004 18.5963 289.329C17.5627 289.655 16.4583 289.669 15.3823 289.287C14.3062 288.905 13.4567 288.14 12.9328 287.291C12.3098 286.342 12.0833 285.224 12.2674 284.133C12.4514 283.043 13.0319 281.981 13.7823 281.344C16.1468 279.319 19.0777 277.734 21.7253 276.035C22.7872 275.313 23.8491 274.59 25.2084 273.798L19.0635 263.589C16.7557 264.821 14.7593 265.968 12.5647 267.1C10.8798 268.177 8.99671 269.04 7.12777 269.89C4.22524 271.065 1.78995 270.173 0.57231 267.681C-0.036512 266.534 -0.135621 265.118 0.161711 263.929C0.558153 262.655 1.35104 261.607 2.49789 260.998C4.91902 259.483 7.34015 258.152 9.86039 256.751C11.0072 256.142 12.0691 255.42 13.0178 254.783C12.4089 248.411 13.216 246.967 19.1202 244.716C22.943 243.3 26.8508 242.195 31.0276 241.417C35.3177 240.539 39.8767 241.304 43.7137 243.597C44.2801 244.036 44.9739 244.192 45.5685 244.249C46.2765 244.206 46.9844 244.164 47.5224 243.696C62.7005 235.725 76.2503 239.59 88.9365 249.615C95.5486 254.952 100.447 261.749 105.474 268.261C110.5 274.774 115.484 281.684 120.935 287.829C123.625 290.745 126.839 293.209 130.421 294.993C137.94 298.986 145.628 298.377 152.891 294.016C164.133 287.56 172.586 276.955 176.267 264.495C176.947 262.244 177.598 260.177 178.547 257.147C174.979 259.087 172.062 260.46 169.131 262.046C167.871 262.754 166.611 263.462 165.464 264.071C160.749 266.619 157.733 265.274 156.02 260.234C152.679 250.238 149.946 240.086 147.936 229.679C144.438 211.231 140.531 192.952 137.033 174.517C134.4 160.557 131.866 146.498 129.841 132.396C127.76 117.77 126.995 102.96 129.529 88.2916C132.035 74.0197 139.228 62.8344 150.64 54.1693C159.178 47.5997 169.216 43.8619 178.957 39.7842C200.946 30.6378 223.401 23.3319 245.871 15.842C247.839 15.0916 249.991 14.5536 252.228 14.1288C253.97 13.7607 255.754 13.9023 257.41 14.7235C259.718 16.111 261.644 15.7571 264.008 15.035C273.367 12.2457 282.698 9.65471 292.142 6.96458C297.38 5.46376 299.136 6.20001 302.081 10.9431V11.1414L302.123 11.0989ZM252.795 24.4505C250.742 25.1017 249.198 25.484 247.655 26.0646C234.148 30.5387 220.47 34.8146 207.232 39.8125C192.748 45.3202 178.249 51.0261 164.275 57.7798C150.102 64.5193 141.564 76.101 139.341 92.0011C137.642 104.829 137.841 117.897 139.95 130.81C142.782 150.009 146.435 169.066 150.074 188.124C153.273 205.142 156.785 222.076 160.395 239.123C161.344 243.71 162.392 248.411 165.28 252.659C177.867 245.792 190.312 239.236 202.786 232.469C202.574 231.35 202.546 230.444 202.305 229.524C200.379 220.745 198.44 211.953 196.712 203.189C194.716 192.598 192.521 181.979 193.158 171.176C193.98 159.283 197.335 148.409 205.929 139.73C209.313 136.275 213.165 133.16 217.002 130.243C223.076 125.798 229.504 121.777 235.762 117.529C245.064 111.427 254.38 105.31 263.782 99.307C268.001 96.6168 272.489 94.4506 277.006 91.8879L252.71 24.3372L252.809 24.4505H252.795ZM293.104 17.3287C283.349 20.0896 273.905 22.7798 264.051 25.6256L274.627 55.1604C283.717 50.5447 292.396 46.0848 301.387 41.5682L293.118 17.3287H293.104ZM36.7194 272.353C44.0677 268.304 46.1915 262.74 42.7651 256.552C39.6927 250.79 32.8682 249.558 25.619 253.721C25.7747 254.329 26.0296 254.853 26.2986 255.377C29.6684 261.055 33.1655 266.647 36.6486 272.24L36.7477 272.353H36.7194ZM203.466 169.052C216.52 163.842 222.396 155.446 217.639 142.93C208.605 149.358 204.882 158.518 203.466 169.052Z" fill="#102185"/>
<path d="M178.731 119.951C172.841 113.07 174.115 101.715 181.336 95.3432C184.663 92.4832 189.095 91.1239 193.399 91.3505C197.788 91.6903 201.951 93.715 204.811 97.0564C210.8 104.051 209.398 115.689 201.88 121.933C198.553 124.793 194.234 126.067 189.845 125.728C185.456 125.388 181.407 123.264 178.632 120.036L178.745 119.937L178.731 119.951ZM195.282 113.792C198.609 110.932 199.247 106.67 196.868 103.668C194.659 101.092 191.374 100.738 188.472 103.215C185.045 105.962 184.281 110.719 186.858 113.735C188.982 116.213 192.592 116.284 195.381 113.891L195.282 113.778V113.792Z" fill="#102185"/>
<path d="M239.386 104.348C236.909 106.472 233.808 107.633 230.764 108.001C227.521 108.355 224.364 107.704 221.561 106.189C218.757 104.674 216.435 102.38 214.949 99.5483C213.462 96.7166 212.796 93.5592 213.051 90.3594C213.292 87.1595 214.637 84.1579 216.534 81.5952C218.432 79.0325 221.193 77.2343 224.279 76.2715C227.366 75.3088 230.679 75.2663 233.638 76.0875C236.682 77.0219 239.457 78.7493 241.581 81.2129C242.969 82.827 244.016 84.71 244.668 86.7772C245.319 88.8302 245.545 91.0673 245.39 93.0636C245.22 95.2582 244.554 97.3112 243.606 99.251C242.657 101.191 241.227 102.776 239.613 104.164L239.401 104.348H239.386ZM232.746 96.8157C233.61 96.0794 234.19 95.0175 234.488 93.8424C234.785 92.6672 234.672 91.4496 234.247 90.5151C233.822 89.5806 233.1 88.5187 232.25 87.7541C231.302 87.0745 230.226 86.6923 229.022 86.6073C227.819 86.5082 226.7 86.7347 225.752 87.3577C224.704 87.8816 223.939 88.717 223.359 89.7789C222.778 90.8408 222.594 91.9309 222.693 93.1486C222.792 94.3662 223.118 95.3856 223.953 96.3626C225.058 97.651 226.615 98.3731 228.399 98.5147C229.999 98.6421 231.741 98.0758 233.043 96.9714L232.746 96.844V96.8157Z" fill="#102185"/>
<path d="M167.489 79.6133C167.815 79.3301 168.636 79.0045 169.372 78.5514C181.549 72.9588 193.937 67.3945 206.114 61.816C207.459 61.2213 209.016 60.6408 210.531 60.4567C211.763 60.1452 213.051 60.3434 214.113 60.9381C215.175 61.5186 215.997 62.4956 216.421 63.6283C216.846 64.761 216.832 66.0635 216.336 67.2387C215.841 68.4139 214.878 69.2351 213.745 69.6457C209.158 71.8969 204.386 73.7375 199.7 75.8896C190.964 79.8399 182.2 83.9742 173.464 87.9244C173.039 88.2926 172.529 88.3492 172.119 88.5191C169.33 89.6093 166.781 88.8023 165.351 86.4944C164.02 84.2857 164.728 81.6239 167.503 79.4293V79.6275L167.489 79.6133Z" fill="#102185"/>
</svg>

<svg xmlns="http://www.w3.org/2000/svg" width="369" height="308" fill="none" viewBox="0 0 369 308"><path fill="#102185" d="M302.123 11.099c5.721-1.161 10.011.368 12.474 6.286 1.558-.58 3.087-.963 4.446-1.571a4328 4328 0 0 1 39.375-14.527 23 23 0 0 1 4.007-1.203c1.119-.213 2.209-.029 3.157.65.949.68 1.6 1.43 2.124 2.479.411 1.132.425 2.237.142 3.426a5.46 5.46 0 0 1-2.124 2.747c-1.147.609-2.308 1.232-3.54 1.529L320.728 26.29c-.935.425-1.968.75-2.492 1.02-.198 2.59.198 5.238-.949 7.15-1.146 1.911-3.454 3.143-5.394 4.8 1.317 7.63 1.104 7.815-6.428 11.652-8.793 4.545-17.67 8.976-26.349 13.422l-.538.468c.311 1.231.707 2.562 1.217 3.808 2.563 7.122 5.126 14.258 7.688 21.38 1.883 5.465.255 8.353-4.983 11.157-8.269 4.275-16.453 8.877-24.368 13.776-8.863 5.536-17.485 11.808-26.349 17.344-2.959 1.982-4.134 4.092-3.398 7.575.637 3.37 1.076 6.909 1.204 10.336.226 3.525-.354 7.207-1.813 10.505-1.373 3.413-3.497 6.358-6.102 8.765-4.531 4.063-9.416 7.504-14.952 10.194-3.978 2.095-3.228 2.761-2.548 5.734 2.732 14.074 5.55 28.246 8.283 42.306 1.444 7.334-.071 11.242-6.867 14.838-4.404 2.478-8.807 4.743-13.295 7.108-.836.34-1.388.991-1.94 1.656-.552.666-.722 1.558-.793 2.549-2.095 12.785-6.244 24.919-14.852 34.901-5.097 6.23-11.426 11.468-18.647 15.234-13.055 6.528-25.486 4.857-36.742-3.95-7.108-5.465-12.375-12.7-17.656-19.737-4.842-6.3-9.345-12.87-14.612-18.802-4.346-4.857-9.797-8.382-15.956-10.577-6.343-2.393-12.233-1.444-18.208 1.812.325 1.034.453 1.841.792 2.676 1.26 3.214 1.487 6.74.822 10.11s-2.308 6.442-4.616 8.976c-2.747 3.101-5.777 5.876-8.99 8.439-4.588 3.568-5.678 3.369-10.322-.298-2.945 1.784-6.004 3.653-9.161 5.423-.85.538-1.784.963-2.818 1.288a5 5 0 0 1-3.214-.042 4.8 4.8 0 0 1-2.45-1.996 4.4 4.4 0 0 1-.665-3.158c.184-1.09.765-2.152 1.515-2.789 2.365-2.025 5.296-3.61 7.943-5.309 1.062-.722 2.124-1.445 3.483-2.237l-6.144-10.209c-2.308 1.232-4.305 2.379-6.5 3.511-1.684 1.077-3.567 1.94-5.436 2.79-2.903 1.175-5.338.283-6.556-2.209-.609-1.147-.708-2.563-.41-3.752.396-1.274 1.189-2.322 2.336-2.931 2.421-1.515 4.842-2.846 7.362-4.247 1.147-.609 2.21-1.331 3.158-1.968-.61-6.372.198-7.816 6.102-10.067a72 72 0 0 1 11.908-3.299c4.29-.878 8.849-.113 12.686 2.18.566.439 1.26.595 1.855.652.707-.043 1.415-.085 1.953-.553 15.179-7.971 28.728-4.106 41.415 5.919 6.612 5.337 11.51 12.134 16.537 18.646s10.01 13.423 15.461 19.568c2.69 2.916 5.904 5.38 9.486 7.164 7.519 3.993 15.207 3.384 22.47-.977 11.242-6.456 19.695-17.061 23.376-29.521.68-2.251 1.331-4.318 2.28-7.348-3.568 1.94-6.485 3.313-9.416 4.899-1.26.708-2.52 1.416-3.667 2.025-4.715 2.548-7.731 1.203-9.444-3.837-3.341-9.996-6.074-20.148-8.084-30.555-3.498-18.448-7.405-36.727-10.903-55.162-2.633-13.96-5.167-28.019-7.192-42.121-2.081-14.626-2.846-29.436-.312-44.104 2.506-14.272 9.699-25.458 21.111-34.123 8.538-6.57 18.576-10.307 28.317-14.385 21.989-9.146 44.444-16.452 66.914-23.942 1.968-.75 4.12-1.288 6.357-1.713 1.742-.368 3.526-.227 5.182.595 2.308 1.387 4.234 1.033 6.598.311 9.359-2.79 18.69-5.38 28.134-8.07 5.238-1.501 6.994-.765 9.939 3.978v.198zM252.795 24.45c-2.053.65-3.597 1.033-5.14 1.614-13.507 4.474-27.185 8.75-40.423 13.747-14.484 5.508-28.983 11.214-42.957 17.968C150.102 64.52 141.564 76.1 139.341 92a132.7 132.7 0 0 0 .609 38.809c2.832 19.199 6.485 38.256 10.124 57.314 3.199 17.018 6.711 33.952 10.321 50.999.949 4.587 1.997 9.288 4.885 13.536 12.587-6.867 25.032-13.423 37.506-20.19-.212-1.119-.24-2.025-.481-2.945-1.926-8.779-3.865-17.571-5.593-26.335-1.996-10.591-4.191-21.21-3.554-32.013.822-11.893 4.177-22.767 12.771-31.446 3.384-3.455 7.236-6.57 11.073-9.487 6.074-4.445 12.502-8.466 18.76-12.714 9.302-6.102 18.618-12.219 28.02-18.222 4.219-2.69 8.707-4.856 13.224-7.42l-24.296-67.55.099.114zm40.309-7.122a5589 5589 0 0 0-29.053 8.297l10.576 29.534c9.09-4.615 17.769-9.075 26.76-13.592l-8.269-24.24zM36.719 272.353c7.349-4.049 9.472-9.613 6.046-15.801-3.072-5.762-9.897-6.994-17.146-2.831.156.608.41 1.132.68 1.656 3.37 5.678 6.867 11.27 10.35 16.863l.099.113zm166.747-103.301c13.054-5.21 18.93-13.606 14.173-26.122-9.034 6.428-12.757 15.588-14.173 26.122"/><path fill="#102185" d="M178.731 119.951c-5.89-6.881-4.616-18.236 2.605-24.608 3.327-2.86 7.759-4.22 12.063-3.993 4.389.34 8.552 2.365 11.412 5.706 5.989 6.995 4.587 18.633-2.931 24.877-3.327 2.86-7.646 4.134-12.035 3.795s-8.438-2.464-11.213-5.692l.113-.099zm16.551-6.159c3.327-2.86 3.965-7.122 1.586-10.124-2.209-2.576-5.494-2.93-8.396-.453-3.427 2.747-4.191 7.504-1.614 10.52 2.124 2.478 5.734 2.549 8.523.156l-.099-.113zM239.386 104.348c-2.477 2.124-5.578 3.285-8.622 3.653-3.243.354-6.4-.297-9.203-1.812-2.804-1.515-5.126-3.809-6.612-6.64a16.8 16.8 0 0 1-1.898-9.19c.241-3.2 1.586-6.201 3.483-8.764s4.659-4.36 7.745-5.323 6.4-1.006 9.359-.184c3.044.934 5.819 2.661 7.943 5.125a15.8 15.8 0 0 1 3.087 5.564c.651 2.053.877 4.29.722 6.287-.17 2.194-.836 4.247-1.784 6.187s-2.379 3.525-3.993 4.913l-.212.184zm-6.64-7.532c.864-.737 1.444-1.799 1.742-2.974.297-1.175.184-2.392-.241-3.327-.425-.934-1.147-1.996-1.997-2.76q-1.422-1.02-3.228-1.148c-1.203-.099-2.322.128-3.27.75-1.048.525-1.813 1.36-2.393 2.422-.581 1.062-.765 2.152-.666 3.37s.425 2.237 1.26 3.214c1.105 1.288 2.662 2.01 4.446 2.152 1.6.127 3.342-.44 4.644-1.544l-.297-.127zM167.489 79.613c.326-.283 1.147-.609 1.883-1.062 12.177-5.592 24.565-11.157 36.742-16.735 1.345-.595 2.902-1.175 4.417-1.36a4.9 4.9 0 0 1 3.582.482 5.12 5.12 0 0 1 2.308 2.69 4.9 4.9 0 0 1-.085 3.61c-.495 1.176-1.458 1.997-2.591 2.408-4.587 2.25-9.359 4.091-14.045 6.244-8.736 3.95-17.5 8.084-26.236 12.034-.425.369-.935.425-1.345.595-2.789 1.09-5.338.283-6.768-2.025-1.331-2.208-.623-4.87 2.152-7.065v.198z"/></svg>
